icon-themes/breeze_svg/cmd/sc_diagramarea.svg

<svg viewBox="0 0 16 16" xmlns="http://www.w3.org/2000/svg"><path d="m3 3v10h10v-10zm1 1h8v8h-8z" fill="#4d4d4d"/><path d="m2 2v12h10 2v-2-5-5zm1 1h10v10h-10z" fill="#f47750"/></svg>

<svg xmlns="http://www.w3.org/2000/svg" viewBox="0 0 16 16">
 <path 
     style="fill:#4d4d4d" 
     d="M 3 3 L 3 13 L 13 13 L 13 3 L 3 3 z M 4 4 L 12 4 L 12 12 L 4 12 L 4 4 z "
     />
 <path 
     style="fill:#f47750" 
     d="M 2 2 L 2 14 L 12 14 L 14 14 L 14 12 L 14 7 L 14 2 L 2 2 z M 3 3 L 13 3 L 13 13 L 3 13 L 3 3 z "
     />
 </svg>
